Icons/Line/si_Memory.svg

<svg width="24" height="24" viewBox="0 0 24 24" fill="none" xmlns="http://www.w3.org/2000/svg">
<path d="M16.6 5H7.4C6.07452 5 5 6.07452 5 7.4V16.6C5 17.9255 6.07452 19 7.4 19H16.6C17.9255 19 19 17.9255 19 16.6V7.4C19 6.07452 17.9255 5 16.6 5Z" stroke="black" stroke-width="1.5" stroke-miterlimit="10"/>
<path d="M13.4 9H10.6C9.71634 9 9 9.71634 9 10.6V13.4C9 14.2837 9.71634 15 10.6 15H13.4C14.2837 15 15 14.2837 15 13.4V10.6C15 9.71634 14.2837 9 13.4 9Z" stroke="black" stroke-width="1.5" stroke-miterlimit="10"/>
<path d="M14 5V3" stroke="black" stroke-width="1.5" stroke-miterlimit="10" stroke-linecap="round"/>
<path d="M10 5V3" stroke="black" stroke-width="1.5" stroke-miterlimit="10" stroke-linecap="round"/>
<path d="M14 21V19" stroke="black" stroke-width="1.5" stroke-miterlimit="10" stroke-linecap="round"/>
<path d="M10 21V19" stroke="black" stroke-width="1.5" stroke-miterlimit="10" stroke-linecap="round"/>
<path d="M21 14H19" stroke="black" stroke-width="1.5" stroke-miterlimit="10" stroke-linecap="round"/>
<path d="M21 10H19" stroke="black" stroke-width="1.5" stroke-miterlimit="10" stroke-linecap="round"/>
<path d="M5 14H3" stroke="black" stroke-width="1.5" stroke-miterlimit="10" stroke-linecap="round"/>
<path d="M5 10H3" stroke="black" stroke-width="1.5" stroke-miterlimit="10" stroke-linecap="round"/>
</svg>

<svg width="24" height="24" fill="none" xmlns="http://www.w3.org/2000/svg"><path d="M16.6 5H7.4A2.4 2.4 0 0 0 5 7.4v9.2A2.4 2.4 0 0 0 7.4 19h9.2a2.4 2.4 0 0 0 2.4-2.4V7.4A2.4 2.4 0 0 0 16.6 5Z" stroke="#000" stroke-width="1.5" stroke-miterlimit="10"/><path d="M13.4 9h-2.8A1.6 1.6 0 0 0 9 10.6v2.8a1.6 1.6 0 0 0 1.6 1.6h2.8a1.6 1.6 0 0 0 1.6-1.6v-2.8A1.6 1.6 0 0 0 13.4 9Z" stroke="#000" stroke-width="1.5" stroke-miterlimit="10"/><path d="M14 5V3M10 5V3M14 21v-2M10 21v-2M21 14h-2M21 10h-2M5 14H3M5 10H3" stroke="#000" stroke-width="1.5" stroke-miterlimit="10" stroke-linecap="round"/></svg>
